X:1
T:Suite from "The Mount of Olives"
T:Suite from "The Mount of Olives"
T:For Three Trombones I. Chorus . We Surely Here Shall Find Him 
T:L. van Beethoven arr. Allen Ostrander Edited by Kristopher Ring 
T:1950 Edition Musicus - a division of Ensemble Publications
T:1950 Edition Musicus - a division of Ensemble Publications
T:1950 Edition Musicus - a division of Ensemble Publications
T:1950 Edition Musicus - a division of Ensemble Publications
T:1950 Edition Musicus - a division of Ensemble Publications
C:L. van Beethoven
Z:1950 Edition Musicus - a division of Ensemble Publications
%%score 1 2 3
L:1/8
M:4/4
K:C
V:1 bass nm="Trombone" snm="Tbn."
V:2 bass nm="Trombone" snm="Tbn."
V:3 bass nm="Trombone" snm="Tbn."
V:1
"^Alla Marcia" z6 z2 | z8 | z8 | z4 z2!pp! (A,>^G, | .A,2) (A,>F, .D,2) z2 | z4 z2 (B,>^A, | %6
 .B,2) (B,>G, .E,2) z2 | z2 (C>B, .A,2) (D>C | .B,2) (G,>^F, G,2 _A,>G, | %9
 _A,2 G,>^F, G,2)!>(! A,2-!>)! |!p! A,2 (G,>^F, G,2 _A,>G, | _A,2 G,>^F, G,2)!>(! (=A,2!>)! | %12
!p! G,2) z2 z4 | z6!p! C2 |"^A" C3 C C2 C2 | C2 (C>B, .C2) (C>B, | C3) C C3 C | C2 (C>B, .C2) C2 | %18
 D3 D D2 D2 | D2 z4 D2 | E2 z4 E2 | E2 z4 E2 | D2 (D>^C .D2) (D>C |"^B" .D2) z2 z4 | z2 (E4 ^F>G | %25
 A2)"_cresc." D2 D2 D2 |!p! .D2 .E2 z4 | B,4 A,4 | B,2 D4 (C>D | E2) (E4 ^F>G | %30
 A2)"_cresc." D2 D2 D2 |!p! .D2 .E2 z4 | D4 D4 |"^C""_(solo) cresc." D2 (G,>^F, G,2 _A,>G, | %34
 _A,2 G,>^F, G,2)!>(! A,2-!>)! |!p! A,2"_cresc." (G,>^F, G,2 _A,>G, | %36
 _A,2 G,>^F, G,2)!>(! (=A,2!>)! |!p! G,2) z2 z4 | z8 | z8 | z6!p! _A,2 |"^D" _A,2 A,2 A,2 A,2 | %42
 _A,2 A,2 z2 A,2 | A,2 z2 z2 A,2 | _B,2 z2 z2 B,2 | B,2 B,2 B,2 B,2 | C2 z2 z2 (!>!_E2 | %47
 D2)!p! D2 D2 D2 | D2 z2 z2 (!>!_E2 | D2) D2 D2 D2 |"^E" D2 z2 z4 | z8 | z2!<(! D2 D2 D2!<)! | %53
!f! E6 E2 |!p! D2 z2 D2 z2 | E2 z2 z4 | z8 | z2!<(! D2 D2 D2!<)! |!f! E6 E2 |!p! D2 z2 D2 z2 | %60
"^F"!pp! .C.G, z ^G, z A, z A, | z A, z ^A, z B, z B, | z B, z B, z C z C | %63
 z!<(! C z F z F z F!<)! | F2"_cresc." (B,C DEFD) |!p! C2 C2 z4 | D4 D4 | E2 C4 C2 | %68
!f! .C2 .C2 z4 |!p! B,4 B,4 |"^G""_(solo)" C2 C>"_cresc."B, C2 A,>^G, | %71
 A,2 _A,>G, A,2!>(! G,2-!>)! |!p! G,2"_cresc." C>B, C2 A,>^G, | A,2 _A,>G, A,2!>(! G,2-!>)! | %74
!p! G,2 z2 E,2 z2 |!pp! !fermata!E,6 z2 |] %76
V:2
!pp! z6 (C>B, | .C2) (C>B, .C2) (C>B, | .C2) z2 z2 (C,>B,, | .C,).E, z D, z ^C, (E,2 | %4
 .F,2) z2 z2 (F,>E, | .F,).F, z E, z ^D, (^F,2 | .G,2) z2 z2 (G,>^F, | .G,).G, z G, z C, z A, | %8
 D,2 z2 z2 (B,2 | B,2) C4!>(! (C2!>)! |!p! B,6) (B,2 | B,2) C4!>(! (C2!>)! | %12
!p! B,2) (G,>!pp!^F,) .G,2 z2 | z4 z2!p! E,2 | E,3 F, G,3 A, | G,2 E,2 z2 E,2 | E,3 F, G,3 A, | %17
 G,2 E,2 z2 C2 | C3 C C2 C2 | B,2 z2 z2 B,2 | B,2 z2 z2 B,2 | C2 z2 z2 C2 | C2 C2 C2 C2 | %23
 B,2 z2 z4 | z2 (ED CB,A,G, | ^F,2)"_cresc." (F,G, A,B,CA,) | .B,2!p! .G,2 z4 | G,4 ^F,4 | %28
 G,2 (DC B,A,G,^F, | E,2) (ED CB,A,G, | ^F,2)"_cresc." (F,G, A,B,CA,) |!p! .B,2 .G,2 z4 | B,4 A,4 | %33
 B,2 z2 z2"_cresc." (B,2 | B,2) C4!>(! (C2!>)! |!p! B,2) z2 z2"_cresc." (B,2 | %36
 B,2) C4!>(! (C2!>)! |!p! B,2) (G,>^F, .G,2) (G,>F, | .G,2) z2 z2 (_A,>G, | %39
 ._A,2) (A,>G, .A,2) (A,>G, | ._A,2) A,2 A,2!p! _E,2 | F,2 F,2 F,2 F,2 | _E,2 C,2 z2 E,2 | %43
 F,2 z2 z2 F,2 | F,2 z2 z2 F,2 | G,2 D,2 D,2 D,2 | _E,2 z2 z2 (!>!C2 | C2) C2 C2 C2 | %48
 B,2 G,2 !>!C4- | C!p! C2 C2 C2 C | B,2 G,4"_cresc." G,2- | G,2 G,4 G,2- | %52
 G,2!<(! G,2 G,2 G,2!<)! |!f! G,6 C2 |!p! C2 z2 B,2 z2 | G,2"_cresc." G,4 G,2- | G,2 G,4 G,2- | %57
 G,2!<(! G,2 G,2 G,2!<)! |!f! G,6 C2 |!p! C2 z2 B,2 z2 |!pp! .E,.E, z D, z ^C, z E, | %61
 z F, z E, z ^D, ^F,2 | G,2 F,2 E,2 G,2 |!<(! A,2 z C z D z A,!<)! | G,2"_cresc." (G,A, B,CDB,) | %65
!p! C2 A,2 z4 | C4 B,4 | C2 ^F,4 F,2 |!f! .D,2 .D,2 z4 |!p! D,4 D,4 | E,2 z2 z4 | %71
 z2 F,4!>(! (D,>F,!>)! |!p! E,2) z2 z4 | C,2 F,4!>(! (D,>F,!>)! |!p! E,2) z2 C,2 z2 | %75
!pp! !fermata!C,6 z2 |] %76
V:3
 z6!pp! (C,>B,, | .C,2) (C,>B,, .C,2) (C,>B,, | .C,2) z2 z2 (C,>B,, | .C,2) ._B,,2 .A,,2 (^C,2 | %4
 .D,2) z2 z2 (D,>^C, | .D,2) .C,2 .B,,2 (^D,2 | .E,2) z2 z2 (E,>^D, | .E,2) (E,>E, .F,2) (^F,>F, | %8
 .G,2) G,,4 F,2- | F,2 E,4!>(! (_E,2!>)! |!p! D,2) G,,4 (F,2 | E,2) E,4!>(! (_E,2!>)! | %12
!p! D,2)!pp! (G,,>^F,, .G,,2) (G,,>F,, | .G,,2) z2 z2!p! C,2 | C,3 D, E,3 F, | E,2 C,2 z2 C,2 | %16
 C,3 D, E,3 F, | E,2 C,2 z2 E,2 | F,3 F, ^F,2 F,2 | G,2 z2 z2 G,2 | ^G,2 z2 z2 G,2 | %21
 A,2 z2 z2 A,2 | ^F,2 F,2 F,2 F,2 | G,2"_(solo)" (B,A, G,^F,E,D, | C,2) (CB, A,G,^F,E, | %25
 D,2) (D,E, ^F,G,A,F,) |!p! .G,2 .C,2 z4 | D,4 D,4 | G,2 (B,A, G,^F,E,D, | C,2) (CB, A,G,^F,E, | %30
 D,2)"_cresc." (D,E, ^F,G,A,F,) |!p! .G,2 .C,2 z4 | G,4 ^F,4 | .G,2 G,,4"_cresc." F,2- | %34
 F,2 E,4!>(! (_E,2!>)! |!p! D,2) G,,4 (F,2 | E,2) E,4!>(! (_E,2!>)! | %37
!p! D,2) (G,,>^F,, .G,,2) (G,,>F,, | .G,,2) z2 z2 (_A,,>G,, | ._A,,2) (A,,>G,, .A,,2) (A,,>G,, | %40
 ._A,,2) A,,2 A,,2!p! C,2 | _D,2 D,2 D,2 D,2 | C,2"_solo" (_A,,>G,, .A,,2) C,2 | %43
 C,2"_solo" (F,,>E,, .F,,2) C,2 | D,2"_solo" (_B,,>A,, .B,,2) D,2 | %45
 D,2"_solo" (G,,>^F,, .G,,2) G,,2 |"_solo" C,2 C,2 !>!_A,4- | A,2 F,2 ^F,2 F,2 | %48
 G,2 z2 z2 (!>!_A,2 | F,2)!p! F,2 ^F,2 F,2 | G,2 (G,,>^F,,"_cresc." .G,,2) (_A,,>G,, | %51
 ._A,,2) (=A,,>^G,, .A,,2) (_B,,>A,, | ._B,,2)!<(! =B,,2 B,,2 B,,2!<)! |!f! C,2 (CB, A,G,F,E,) | %54
!p! F,2 z2 G,2 z2 | C,2 (G,,>^F,,"_cresc." .G,,2) (_A,,>G,, | ._A,,2) (=A,,>^G,, .A,,2) (_B,,>A,, | %57
 ._B,,2)!<(! =B,,2 B,,2 B,,2!<)! |!f! C,2 (CB, A,G,F,E,) |!p! F,2 z2 G,2 z2 | %60
!pp! .C,2 ._B,,2 .A,,2 .^C,2 | .D,2 .C,2 .B,,2 .^D,2 | E,2 D,2 C,2 E,2 | %63
 F,2!<(! (A,G, F,E,D,C,)!<)! | B,,2 F,2"_cresc." F,2 F,2 |!p! E,2 F,2 z4 | G,4 G,4 | %67
 C,2 _A,,4 A,,2 |!f! .G,,2 .G,,2 z4 |!p! G,,4 G,,4 | C,2 E,4"_cresc." F,2- | %71
 F,2 D,4!>(! (B,,2!>)! |!p! C,2)"_cresc." E,4 F,2- | F,2 D,4!>(! (B,,2!>)! | %74
!p! C,2)"_solo" (C,>B,, .C,2) (C,>B,, | !fermata!C,6) z2 |] %76

